X:1
T:Title
%%score { ( 1 3 ) | 2 }
L:1/8
Q:1/4=100
M:4/4
K:Ab
V:1 treble nm="Grand Piano"
V:3 treble 
V:2 bass 
V:1
 [Ec]3 [Fd] [Ec]2 [DB]2 | [CA]2 [DF]2 [CE]2 [A,C]2 | [CE]3 [CE] [CE]2 [CE]2 | [CA]2 [Ec]2 [EB]4 | %4
w: W.~J.~Kirkpatrick * * *||||
 [Ec]3 [Fd] [Ec]2 [DB]2 | [CA]2 [DF]2 [CE]2 C2 | [CE]3 [CE] [DF]2 [FA]2 | %7
w: |||
[M:7/8] [Ec]2 [DB]2 [CA]3 |[M:1/4] cd |[M:4/4] z2 e2 z4 | e6 cc | B2 B2 [Ac]2 [Ac]2 | %12
w: |||||
[M:3/4] [Gd]6 |[M:1/4] [Ge][Gd] |[M:4/4] [Ec]2 [Ec]2 [EB]2 [EA]2 | [DF]2 [Fd]4 [Fc][FB] | %16
w: ||||
 A2 A2 G2 B2 | [CEA]6 z2 |] %18
w: ||
V:2
 [A,,A,]3 [A,,A,] [A,,A,]2 [A,,E,]2 | [A,,E,]2 [A,,A,]2 [A,,A,]2 [A,,E,]2 | %2
 [A,,A,]3 [A,,A,] [A,,A,]2 [A,,A,]2 | [C,A,]2 [A,,A,]2 [E,G,]4 | %4
 [A,,A,]3 [A,,A,] [A,,A,]2 [A,,E,]2 | [A,,E,]2 [A,,A,]2 [A,,A,]2 [A,,A,]2 | %6
 [A,,A,]3 [A,,A,] [D,A,]2 [D,A,]2 |[M:7/8] [E,A,]2 [E,G,]2 [A,,A,]3 | %8
[M:1/4][K:treble] [A,E][A,B,E] |[M:4/4] [A,CE]2 .[A,CF]2 [A,CA]2 [A,CA]2 | [A,CE]6 [A,E][A,E] | %11
 [E,G,E]2 [E,G,E]2 [E,A,]2 [E,A,]2 |[M:3/4] [E,B,]6 |[M:1/4] [E,C][E,B,] | %14
[M:4/4] [A,,A,]2 [A,,A,]2 [B,,G,]2 [C,A,]2 | [D,A,]2 [D,A,]4 [D,A,][D,D] | %16
 [E,CE]2 [E,CE]2 [E,B,E]2 [E,DE]2 | [A,,A,]6 z2 |] %18
V:3
 x8 | x8 | x8 | x8 | x8 | x8 | x8 |[M:7/8] x7 |[M:1/4] x2 |[M:4/4] e2 z G e2 e2 | x8 | x8 | %12
[M:3/4] x6 |[M:1/4] x2 |[M:4/4] x8 | x8 | x8 | x8 |] %18

